X: 36544
T: Setting Sun, The
R: jig
M: 6/8
K: Dmajor
|:AFd AFd|AFD E2F|GFG Eed|cBc A2B|
AFd AFd|AFD E2F|GFG Eed|cBc d2B:|
|:Adfagf|efg B2d|cBc ABc|dAG F2E|
DFA agf|efg B2d|cBc ABc|dfe d2B:|

